X: 29638
T: Northern Breeze, The
R: jig
M: 6/8
K: Gdorian
DGF G/G/G A|BGF GBc|dgf dBG|Afd cAF|
DGF G/G/G A|BGF GBc|dBG cAF|DBA ~G2F:|
|:Gcc dBG|FAA ~A2F|GBc d/d/d g|gfd cfe|
dgf ecG|dBG FAc|B/B/B d cAF|DBA ~G2F:|

